exampleSite/static/images/illustrations/leaf-yellow.svg

<svg width="346" height="285" viewBox="0 0 346 285" fill="none" xmlns="http://www.w3.org/2000/svg">
<g clip-path="url(#clip0)">
<path d="M345.248 45.8398C349.19 40.5478 338.274 21.6488 297.338 8.34284C256.402 -4.96216 219.317 0.860838 204.093 4.06784C188.87 7.27484 179.007 4.49584 157.351 0.646838C135.695 -3.20316 121.115 11.7658 124.546 29.9408C127.976 48.1158 125.618 48.7568 91.3111 56.8828C57.0051 65.0078 16.9091 76.9828 29.3461 120.816C41.7821 164.65 26.9871 158.236 15.4091 167.644C3.83005 177.052 -9.35195 207.251 9.40505 227.514C19.6971 238.634 29.0291 245.342 27.4151 258.734C25.0491 278.38 28.4881 289.096 43.4971 283.537C58.5061 277.977 66.4391 259.375 69.0121 245.262C71.5851 231.15 76.0901 224.122 102.89 225.162C118.573 225.772 126.813 209.607 129.176 197.002C130.727 188.725 127.593 181.159 127.976 174.914C129.263 153.959 143.166 157.872 168.072 150.11C195.517 141.557 200.662 117.395 200.02 96.2258C199.376 75.0578 203.489 33.1398 243.515 25.8818C264.228 22.1258 294.525 29.5288 313.931 36.9568C332.025 43.8818 339.761 50.9468 345.248 45.8398V45.8398Z" fill="#FF9E2B"/>
<path d="M40.8512 279.001L45.4002 280.513C45.4002 280.513 49.8072 216.203 74.6172 155.196C101.377 89.396 146.056 51.161 190.147 29.208C130.032 54.865 97.3802 91.177 68.1552 152.89C36.6552 219.406 40.8512 279.001 40.8512 279.001Z" fill="#D77D13"/>
<path d="M345.248 45.8398C349.19 40.5478 338.274 21.6488 297.338 8.34284C256.402 -4.96216 219.317 0.860838 204.093 4.06784C188.87 7.27484 179.007 4.49584 157.351 0.646838C135.695 -3.20316 121.115 11.7658 124.546 29.9408C127.976 48.1158 125.618 48.7568 91.3111 56.8828C57.0051 65.0078 16.9091 76.9828 29.3461 120.816C41.7821 164.65 26.9871 158.236 15.4091 167.644C3.83005 177.052 -9.35195 207.251 9.40505 227.514C19.6971 238.634 29.0291 245.342 27.4151 258.734C25.0491 278.38 28.4881 289.096 43.4971 283.537C58.5061 277.977 66.4391 259.375 69.0121 245.262C71.5851 231.15 76.0901 224.122 102.89 225.162C118.573 225.772 126.813 209.607 129.176 197.002C130.727 188.725 127.593 181.159 127.976 174.914C129.263 153.959 143.166 157.872 168.072 150.11C195.517 141.557 200.662 117.395 200.02 96.2258C199.376 75.0578 203.489 33.1398 243.515 25.8818C264.228 22.1258 294.525 29.5288 313.931 36.9568C332.025 43.8818 339.761 50.9468 345.248 45.8398V45.8398Z" fill="#FDC130"/>
<path d="M40.8512 279.001L45.4002 280.513C45.4002 280.513 49.8072 216.203 74.6172 155.196C101.377 89.396 146.056 51.161 190.147 29.208C130.032 54.865 97.3802 91.177 68.1552 152.89C36.6552 219.406 40.8512 279.001 40.8512 279.001Z" fill="#EBB011"/>
</g>
<defs>
<clipPath id="clip0">
<path d="M0 0H346V285H0V0Z" fill="white"/>
</clipPath>
</defs>
</svg>

<svg xmlns="http://www.w3.org/2000/svg" width="346" height="285"><path d="M345.248 45.84c3.942-5.292-6.974-24.191-47.91-37.497-40.936-13.305-78.021-7.482-93.245-4.275-15.223 3.207-25.086.428-46.742-3.421-21.656-3.85-36.236 11.119-32.805 29.294 3.43 18.175 1.072 18.816-33.235 26.942-34.306 8.125-74.402 20.1-61.965 63.933 12.436 43.834-2.359 37.42-13.937 46.828-11.579 9.408-24.761 39.607-6.004 59.87 10.292 11.12 19.624 17.828 18.01 31.22-2.366 19.646 1.073 30.362 16.082 24.803 15.009-5.56 22.942-24.162 25.515-38.275 2.573-14.112 7.078-21.14 33.878-20.1 15.683.61 23.923-15.555 26.286-28.16 1.551-8.277-1.583-15.843-1.2-22.088 1.287-20.955 15.19-17.042 40.096-24.804 27.445-8.553 32.59-32.715 31.948-53.884-.644-21.168 3.469-63.086 43.495-70.344 20.713-3.756 51.01 3.647 70.416 11.075 18.094 6.925 25.83 13.99 31.317 8.883z" fill="#ff9e2b"/><path d="M40.851 279.001l4.549 1.512s4.407-64.31 29.217-125.317c26.76-65.8 71.439-104.035 115.53-125.988C130.032 54.865 97.38 91.177 68.155 152.89c-31.5 66.516-27.304 126.111-27.304 126.111z" fill="#d77d13"/></svg>
